svgs/thin/puzzle.svg

<svg xmlns="http://www.w3.org/2000/svg" viewBox="0 0 512 512"><!--! Font Awesome Pro 6.6.0 by @fontawesome - https://fontawesome.com License - https://fontawesome.com/license (Commercial License) Copyright 2024 Fonticons, Inc. --><path d="M304 24c0-4.4 3.6-8 8-8l144 0c22.1 0 40 17.9 40 40l0 120c0 4.4-3.6 8-8 8l-64 0c-4.4 0-8 3.6-8 8l0 24c0 13.3-10.7 24-24 24s-24-10.7-24-24l0-24c0-4.4-3.6-8-8-8l-48 0c-4.4 0-8-3.6-8-8l0-24c0-4.4 3.6-8 8-8l16 0c22.1 0 40-17.9 40-40s-17.9-40-40-40l-16 0c-4.4 0-8-3.6-8-8l0-32zm8-24c-13.3 0-24 10.7-24 24l0 32c0 13.3 10.7 24 24 24l16 0c13.3 0 24 10.7 24 24s-10.7 24-24 24l-16 0c-13.3 0-24 10.7-24 24l0 24c0 13.3 10.7 24 24 24l40 0 0 16c0 22.1 17.9 40 40 40s40-17.9 40-40l0-16 56 0c13.3 0 24-10.7 24-24l0-120c0-30.9-25.1-56-56-56L312 0zM56 64C25.1 64 0 89.1 0 120L0 288 0 456c0 30.9 25.1 56 56 56l168 0 168 0c30.9 0 56-25.1 56-56l0-152c0-13.3-10.7-24-24-24l-56 0c-13.3 0-24 10.7-24 24l0 16c0 13.3-10.7 24-24 24s-24-10.7-24-24l0-16c0-13.3-10.7-24-24-24l-40 0 0-192c0-13.3-10.7-24-24-24L56 64zM216 88l0 192-40 0c-4.4 0-8-3.6-8-8l0-16c0-22.1-17.9-40-40-40s-40 17.9-40 40l0 16c0 4.4-3.6 8-8 8l-64 0 0-160c0-22.1 17.9-40 40-40l152 0c4.4 0 8 3.6 8 8zM80 296c13.3 0 24-10.7 24-24l0-16c0-13.3 10.7-24 24-24s24 10.7 24 24l0 16c0 13.3 10.7 24 24 24l40 0 0 40c0 4.4-3.6 8-8 8l-16 0c-22.1 0-40 17.9-40 40s17.9 40 40 40l16 0c4.4 0 8 3.6 8 8l0 64L56 496c-22.1 0-40-17.9-40-40l0-160 64 0zM232 432c0-13.3-10.7-24-24-24l-16 0c-13.3 0-24-10.7-24-24s10.7-24 24-24l16 0c13.3 0 24-10.7 24-24l0-40 40 0c4.4 0 8 3.6 8 8l0 16c0 22.1 17.9 40 40 40s40-17.9 40-40l0-16c0-4.4 3.6-8 8-8l56 0c4.4 0 8 3.6 8 8l0 152c0 22.1-17.9 40-40 40l-160 0 0-64z"/></svg>

<svg xmlns="http://www.w3.org/2000/svg" viewBox="0 0 512 512"><!--! Font Awesome Pro 6.4.2 by @fontawesome - https://fontawesome.com License - https://fontawesome.com/license (Commercial License) Copyright 2023 Fonticons, Inc. --><path d="M304 24c0-4.4 3.6-8 8-8H456c22.1 0 40 17.9 40 40V176c0 4.4-3.6 8-8 8H424c-4.4 0-8 3.6-8 8v24c0 13.3-10.7 24-24 24s-24-10.7-24-24V192c0-4.4-3.6-8-8-8H312c-4.4 0-8-3.6-8-8V152c0-4.4 3.6-8 8-8h16c22.1 0 40-17.9 40-40s-17.9-40-40-40H312c-4.4 0-8-3.6-8-8V24zm8-24c-13.3 0-24 10.7-24 24V56c0 13.3 10.7 24 24 24h16c13.3 0 24 10.7 24 24s-10.7 24-24 24H312c-13.3 0-24 10.7-24 24v24c0 13.3 10.7 24 24 24h40v16c0 22.1 17.9 40 40 40s40-17.9 40-40V200h56c13.3 0 24-10.7 24-24V56c0-30.9-25.1-56-56-56H312zM56 64C25.1 64 0 89.1 0 120V288 456c0 30.9 25.1 56 56 56H224 392c30.9 0 56-25.1 56-56V304c0-13.3-10.7-24-24-24H368c-13.3 0-24 10.7-24 24v16c0 13.3-10.7 24-24 24s-24-10.7-24-24V304c0-13.3-10.7-24-24-24H232V88c0-13.3-10.7-24-24-24H56zM216 88V280H176c-4.4 0-8-3.6-8-8V256c0-22.1-17.9-40-40-40s-40 17.9-40 40v16c0 4.4-3.6 8-8 8H16V120c0-22.1 17.9-40 40-40H208c4.4 0 8 3.6 8 8zM80 296c13.3 0 24-10.7 24-24V256c0-13.3 10.7-24 24-24s24 10.7 24 24v16c0 13.3 10.7 24 24 24h40v40c0 4.4-3.6 8-8 8H192c-22.1 0-40 17.9-40 40s17.9 40 40 40h16c4.4 0 8 3.6 8 8v64H56c-22.1 0-40-17.9-40-40V296H80zM232 432c0-13.3-10.7-24-24-24H192c-13.3 0-24-10.7-24-24s10.7-24 24-24h16c13.3 0 24-10.7 24-24V296h40c4.4 0 8 3.6 8 8v16c0 22.1 17.9 40 40 40s40-17.9 40-40V304c0-4.4 3.6-8 8-8h56c4.4 0 8 3.6 8 8V456c0 22.1-17.9 40-40 40H232V432z"/></svg>
